; generated by Slic3r 1.2.9 on 2016-04-18 at 18:15:46

; external perimeters extrusion width = 0.50mm
; perimeters extrusion width = 0.85mm
; infill extrusion width = 1.02mm
; solid infill extrusion width = 0.85mm
; top infill extrusion width = 0.85mm
; support material extrusion width = 0.50mm

M107
M190 S110 ; set bed temperature
M104 S265 ; set temperature
G28 ; home all axes
G1 Z5 F5000 ; lift nozzle

M109 S265 ; wait for temperature to be reached
G21 ; set units to millimeters
G90 ; use absolute coordinates
M82 ; use absolute distances for extrusion
G92 E0
G1 Z0.150 F7800.000
G1 E-2.00000 F2400.00000
G92 E0
G1 X82.578 Y84.473 F7800.000
G1 E2.00000 F2400.00000
G1 X83.379 Y83.742 E2.01810 F1200.000
G1 X84.017 Y83.209 E2.03199
G1 X84.675 Y82.700 E2.04589
G1 X85.836 Y81.898 E2.06945
G1 X86.544 Y81.461 E2.08335
G1 X87.490 Y80.933 E2.10145
G1 X88.234 Y80.561 E2.11534
G1 X89.527 Y79.996 E2.13890
G1 X90.305 Y79.703 E2.15279
G1 X91.336 Y79.366 E2.17090
G1 X92.700 Y79.007 E2.19446
G1 X93.514 Y78.837 E2.20835
G1 X94.335 Y78.699 E2.22225
G1 X95.411 Y78.567 E2.24035
G1 X96.819 Y78.476 E2.26392
G1 X97.903 Y78.469 E2.28202
G1 X98.734 Y78.501 E2.29591 F1200.000
G1 X99.563 Y78.564 E2.30980
G1 X100.389 Y78.660 E2.32369
G1 X101.211 Y78.787 E2.33758
G1 X102.028 Y78.947 E2.35147
G1 X102.837 Y79.137 E2.36537
G1 X104.192 Y79.531 E2.38893
G1 X104.977 Y79.805 E2.40282
G1 X105.752 Y80.109 E2.41672
G1 X106.514 Y80.442 E2.43061
G1 X107.262 Y80.805 E2.44449
G1 X107.996 Y81.196 E2.45839
G1 X108.714 Y81.616 E2.47228
G1 X109.416 Y82.062 E2.48617
G1 X110.100 Y82.536 E2.50006
G1 X110.765 Y83.036 E2.51395
G1 X111.541 Y83.671 E2.53070
G1 X121.785 Y92.565 E2.75728
G1 X123.218 Y94.335 E2.79532
G1 X124.036 Y97.500 E2.84991
G1 X124.036 Y102.500 E2.93342
G1 X123.639 Y104.743 E2.97146
G1 X121.785 Y107.435 E3.02606
G1 X111.541 Y116.329 E3.25263
G1 X110.765 Y116.965 E3.26938
G1 X109.625 Y117.797 E3.29295
G1 X108.929 Y118.252 E3.30684
G1 X108.216 Y118.679 E3.32073
G1 X107.486 Y119.079 E3.33462
G1 X106.742 Y119.451 E3.34851
G1 X105.984 Y119.793 E3.36241
G1 X105.214 Y120.106 E3.37629
G1 X104.431 Y120.389 E3.39018
G1 X103.639 Y120.641 E3.40407
G1 X102.837 Y120.863 E3.41797
G1 X102.028 Y121.053 E3.43186
G1 X100.962 Y121.255 E3.44996
G1 X100.139 Y121.372 E3.46385
G1 X99.312 Y121.458 E3.47774
G1 X98.482 Y121.512 E3.49164
G1 X97.650 Y121.534 E3.50553
G1 X96.240 Y121.498 E3.52909
G1 X95.411 Y121.433 E3.54298
G1 X94.584 Y121.336 E3.55688
G1 X93.762 Y121.208 E3.57077
G1 X92.700 Y120.993 E3.58887
G1 X91.893 Y120.792 E3.60276
G1 X91.094 Y120.560 E3.61665
G1 X90.305 Y120.297 E3.63054
G1 X89.527 Y120.004 E3.64444
G1 X88.247 Y119.445 E3.66775
G1 X87.490 Y119.067 E3.68189
G1 X86.543 Y118.539 E3.69999
G1 X85.836 Y118.102 E3.71389
G1 X85.145 Y117.638 E3.72778
G1 X84.473 Y117.148 E3.74167
G1 X83.821 Y116.632 E3.75556
G1 X82.772 Y115.710 E3.77888
G1 X82.166 Y115.120 E3.79302
G1 X81.593 Y114.517 E3.80690
G1 X81.045 Y113.891 E3.82080
G1 X80.367 Y113.046 E3.83890
G1 X79.876 Y112.374 E3.85279
G1 X79.411 Y111.685 E3.86668
G1 X78.973 Y110.977 E3.88057
G1 X78.563 Y110.254 E3.89447
G1 X78.181 Y109.515 E3.90836
G1 X77.605 Y108.243 E3.93168
G1 X77.297 Y107.455 E3.94581
G1 X77.024 Y106.669 E3.95970
G1 X76.782 Y105.873 E3.97359
G1 X76.570 Y105.068 E3.98749
G1 X76.390 Y104.257 E4.00138
G1 X76.203 Y103.189 E4.01948
G1 X76.095 Y102.365 E4.03337
G1 X76.020 Y101.536 E4.04726
G1 X75.977 Y100.706 E4.06115
G1 X75.966 Y99.860 E4.07528
G1 X76.020 Y98.464 E4.09861
G1 X76.095 Y97.636 E4.11250
G1 X76.203 Y96.810 E4.12640
G1 X76.342 Y95.991 E4.14029
G1 X76.512 Y95.177 E4.15418
G1 X76.782 Y94.127 E4.17228
G1 X77.024 Y93.331 E4.18617
G1 X77.499 Y92.018 E4.20949
G1 X77.828 Y91.238 E4.22363
G1 X78.181 Y90.485 E4.23752
G1 X78.563 Y89.746 E4.25142
G1 X78.973 Y89.022 E4.26530
G1 X79.411 Y88.315 E4.27919
G1 X80.022 Y87.420 E4.29730
G1 X80.521 Y86.754 E4.31119
G1 X81.045 Y86.109 E4.32508
G1 X81.593 Y85.483 E4.33897
G1 X82.525 Y84.526 E4.36128
G1 X82.766 Y84.664 F7800.000
G1 X83.551 Y83.946 E4.37904 F1200.000
G1 X84.182 Y83.420 E4.39276
G1 X84.832 Y82.918 E4.40648
G1 X85.984 Y82.121 E4.42987
G1 X86.683 Y81.689 E4.44359
G1 X87.612 Y81.172 E4.46135
G1 X88.346 Y80.804 E4.47507
G1 X89.629 Y80.243 E4.49846
G1 X90.398 Y79.954 E4.51218
G1 X91.409 Y79.624 E4.52994
G1 X92.763 Y79.267 E4.55333
G1 X93.568 Y79.100 E4.56705
G1 X94.378 Y78.963 E4.58077
G1 X95.433 Y78.834 E4.59853
G1 X96.831 Y78.744 E4.62192
G1 X97.894 Y78.737 E4.63968
G1 X98.715 Y78.768 E4.65339 F1200.000
G1 X99.534 Y78.830 E4.66711
G1 X100.350 Y78.925 E4.68083
G1 X101.162 Y79.051 E4.69455
G1 X101.968 Y79.208 E4.70827
G1 X102.767 Y79.396 E4.72199
G1 X104.112 Y79.787 E4.74538
G1 X104.888 Y80.057 E4.75910
G1 X105.652 Y80.358 E4.77282
G1 X106.405 Y80.687 E4.78654
G1 X107.144 Y81.045 E4.80025
G1 X107.869 Y81.432 E4.81397
G1 X108.578 Y81.846 E4.82769
G1 X109.271 Y82.287 E4.84141
G1 X109.946 Y82.755 E4.85512
G1 X110.603 Y83.249 E4.86885
G1 X111.365 Y83.873 E4.88530
G1 X121.609 Y92.767 E5.11188
G1 X123.006 Y94.506 E5.14913
G1 X123.768 Y97.500 E5.20073
G1 X123.768 Y102.500 E5.28424
G1 X123.371 Y104.695 E5.32149
G1 X121.609 Y107.233 E5.37309
G1 X111.365 Y116.127 E5.59967
G1 X110.603 Y116.751 E5.61613
G1 X109.472 Y117.577 E5.63952
G1 X108.784 Y118.027 E5.65324
G1 X108.079 Y118.449 E5.66696
G1 X107.359 Y118.844 E5.68067
G1 X106.624 Y119.210 E5.69439
G1 X105.875 Y119.549 E5.70812
G1 X105.114 Y119.857 E5.72183
G1 X104.342 Y120.136 E5.73555
G1 X103.559 Y120.386 E5.74927
G1 X102.767 Y120.604 E5.76298
G1 X101.968 Y120.792 E5.77670
G1 X101.161 Y120.949 E5.79042
G1 X100.110 Y121.106 E5.80818
G1 X99.293 Y121.191 E5.82190
G1 X98.473 Y121.245 E5.83562
G1 X97.652 Y121.266 E5.84934
G1 X96.252 Y121.230 E5.87273
G1 X95.433 Y121.166 E5.88644
G1 X94.617 Y121.071 E5.90017
G1 X93.805 Y120.944 E5.91389
G1 X92.763 Y120.733 E5.93164
G1 X91.966 Y120.534 E5.94536
G1 X91.177 Y120.305 E5.95908
G1 X90.398 Y120.046 E5.97280
G1 X89.629 Y119.757 E5.98652
G1 X88.359 Y119.202 E6.00967
G1 X87.611 Y118.828 E6.02363
G1 X86.683 Y118.310 E6.04139
G1 X85.984 Y117.879 E6.05510
G1 X85.302 Y117.421 E6.06882
G1 X84.638 Y116.937 E6.08254
G1 X83.994 Y116.428 E6.09626
G1 X82.953 Y115.513 E6.11941
G1 X82.354 Y114.929 E6.13337
G1 X81.789 Y114.333 E6.14709
G1 X81.247 Y113.716 E6.16081
G1 X80.730 Y113.078 E6.17452
G1 X80.237 Y112.421 E6.18824
G1 X79.638 Y111.542 E6.20600
G1 X79.205 Y110.844 E6.21972
G1 X78.800 Y110.129 E6.23344
G1 X78.423 Y109.400 E6.24716
G1 X77.851 Y108.137 E6.27031
G1 X77.547 Y107.359 E6.28427
G1 X77.277 Y106.583 E6.29798
G1 X77.038 Y105.797 E6.31170
G1 X76.830 Y105.002 E6.32543
G1 X76.652 Y104.200 E6.33915
G1 X76.468 Y103.153 E6.35690
G1 X76.362 Y102.339 E6.37062
G1 X76.287 Y101.521 E6.38433
G1 X76.244 Y100.686 E6.39830
G1 X76.245 Y99.300 E6.42145
G1 X76.287 Y98.479 E6.43517
G1 X76.362 Y97.661 E6.44888
G1 X76.468 Y96.847 E6.46261
G1 X76.606 Y96.037 E6.47632
G1 X76.774 Y95.233 E6.49004
G1 X77.038 Y94.203 E6.50780
G1 X77.277 Y93.417 E6.52152
G1 X77.749 Y92.114 E6.54467
G1 X78.074 Y91.344 E6.55863
G1 X78.423 Y90.600 E6.57235
G1 X78.800 Y89.870 E6.58607
G1 X79.205 Y89.156 E6.59979
G1 X79.638 Y88.458 E6.61350
G1 X80.237 Y87.579 E6.63126
G1 X80.730 Y86.922 E6.64498
G1 X81.247 Y86.284 E6.65870
G1 X81.789 Y85.667 E6.67242
G1 X82.713 Y84.716 E6.69456
G1 E4.69456 F2400.00000
G92 E0
G1 X104.910 Y107.323 F7800.000
G1 E2.00000 F2400.00000
G1 X104.186 Y107.990 E2.01643 F1200.000
G1 X103.403 Y108.585 E2.03287
G1 X102.566 Y109.103 E2.04930
G1 X101.685 Y109.541 E2.06574
G1 X100.766 Y109.893 E2.08217
G1 X99.818 Y110.157 E2.09860
G1 X98.850 Y110.330 E2.11504
G1 X97.869 Y110.412 E2.13147
G1 X96.885 Y110.400 E2.14791
G1 X95.907 Y110.296 E2.16434
G1 X94.942 Y110.099 E2.18077
G1 X94.001 Y109.813 E2.19721
G1 X93.091 Y109.439 E2.21364
G1 X92.220 Y108.981 E2.23008
G1 X91.396 Y108.443 E2.24651
G1 X90.627 Y107.829 E2.26294
G1 X89.919 Y107.146 E2.27938
G1 X89.279 Y106.399 E2.29581
G1 X88.714 Y105.599 E2.31216
G1 X88.455 Y105.169 E2.32055
G1 X88.015 Y104.308 E2.33670
G1 X87.646 Y103.383 E2.35333
G1 X87.371 Y102.438 E2.36977
G1 X87.186 Y101.472 E2.38620
G1 X87.093 Y100.492 E2.40264
G1 X87.093 Y99.508 E2.41907
G1 X87.186 Y98.528 E2.43550
G1 X87.371 Y97.562 E2.45194
G1 X87.646 Y96.617 E2.46837
G1 X88.009 Y95.703 E2.48481
G1 X88.455 Y94.831 E2.50116
G1 X88.714 Y94.401 E2.50954
G1 X89.279 Y93.601 E2.52589
G1 X89.919 Y92.854 E2.54233
G1 X90.627 Y92.171 E2.55876
G1 X91.396 Y91.557 E2.57519
G1 X92.220 Y91.019 E2.59163
G1 X93.091 Y90.561 E2.60806
G1 X94.001 Y90.187 E2.62450
G1 X94.942 Y89.901 E2.64093
G1 X95.902 Y89.705 E2.65728
G1 X96.400 Y89.640 E2.66567
G1 X97.365 Y89.583 E2.68182 F1200.000
G1 X98.360 Y89.617 E2.69845
G1 X99.336 Y89.745 E2.71489
G1 X100.295 Y89.964 E2.73132
G1 X101.230 Y90.272 E2.74776
G1 X102.149 Y90.676 E2.76453
G1 X102.991 Y91.146 E2.78063
G1 X103.801 Y91.704 E2.79706
G1 X104.556 Y92.335 E2.81349
G1 X105.248 Y93.035 E2.82992
G1 X105.870 Y93.797 E2.84636
G1 X106.418 Y94.614 E2.86279
G1 X106.887 Y95.480 E2.87923
G1 X107.271 Y96.385 E2.89566
G1 X107.567 Y97.319 E2.91201
G1 X107.685 Y97.807 E2.92040
G1 X107.846 Y98.772 E2.93675
G1 X107.915 Y99.754 E2.95318
G1 X107.892 Y100.738 E2.96962
G1 X107.776 Y101.715 E2.98605
G1 X107.569 Y102.677 E3.00248
G1 X107.271 Y103.615 E3.01892
G1 X106.887 Y104.520 E3.03535
G1 X106.421 Y105.381 E3.05170
G1 X106.151 Y105.805 E3.06009
G1 X105.568 Y106.591 E3.07644
G1 X104.960 Y107.267 E3.09162
G1 X104.720 Y107.135 F7800.000
G1 X104.014 Y107.784 E3.10763 F1200.000
G1 X103.251 Y108.364 E3.12364
G1 X102.436 Y108.869 E3.13965
G1 X101.577 Y109.295 E3.15566
G1 X100.682 Y109.638 E3.17168
G1 X99.759 Y109.896 E3.18769
G1 X98.815 Y110.065 E3.20370
G1 X97.860 Y110.144 E3.21971
G1 X96.901 Y110.132 E3.23572
G1 X95.948 Y110.031 E3.25173
G1 X95.008 Y109.840 E3.26774
G1 X94.091 Y109.561 E3.28375
G1 X93.204 Y109.196 E3.29976
G1 X92.356 Y108.750 E3.31578
G1 X91.553 Y108.226 E3.33179
G1 X90.804 Y107.628 E3.34780
G1 X90.114 Y106.962 E3.36381
G1 X89.490 Y106.234 E3.37982
G1 X88.939 Y105.452 E3.39580
G1 X88.689 Y105.039 E3.40387
G1 X88.259 Y104.197 E3.41965
G1 X87.900 Y103.296 E3.43586
G1 X87.632 Y102.375 E3.45187
G1 X87.452 Y101.434 E3.46788
G1 X87.361 Y100.479 E3.48389
G1 X87.361 Y99.521 E3.49991
G1 X87.452 Y98.566 E3.51592
G1 X87.632 Y97.625 E3.53193
G1 X87.900 Y96.704 E3.54794
G1 X88.254 Y95.813 E3.56395
G1 X88.689 Y94.961 E3.57993
G1 X88.939 Y94.548 E3.58800
G1 X89.490 Y93.766 E3.60398
G1 X90.114 Y93.038 E3.61999
G1 X90.804 Y92.372 E3.63600
G1 X91.553 Y91.774 E3.65201
G1 X92.356 Y91.250 E3.66802
G1 X93.204 Y90.804 E3.68403
G1 X94.091 Y90.439 E3.70005
G1 X95.008 Y90.160 E3.71606
G1 X95.946 Y89.970 E3.73204
G1 X96.425 Y89.907 E3.74011
G1 X97.368 Y89.851 E3.75589 F1200.000
G1 X98.338 Y89.884 E3.77210
G1 X99.289 Y90.009 E3.78811
G1 X100.223 Y90.222 E3.80412
G1 X101.134 Y90.523 E3.82013
G1 X102.030 Y90.916 E3.83648
G1 X102.849 Y91.374 E3.85216
G1 X103.639 Y91.917 E3.86817
G1 X104.375 Y92.532 E3.88418
G1 X105.048 Y93.214 E3.90019
G1 X105.655 Y93.957 E3.91620
G1 X106.189 Y94.753 E3.93221
G1 X106.645 Y95.596 E3.94822
G1 X107.020 Y96.478 E3.96423
G1 X107.309 Y97.391 E3.98021
G1 X107.422 Y97.860 E3.98828
G1 X107.579 Y98.804 E4.00426
G1 X107.647 Y99.760 E4.02027
G1 X107.625 Y100.719 E4.03628
G1 X107.512 Y101.671 E4.05230
G1 X107.309 Y102.608 E4.06831
G1 X107.020 Y103.522 E4.08432
G1 X106.645 Y104.404 E4.10033
G1 X106.190 Y105.246 E4.11631
G1 X105.930 Y105.653 E4.12438
G1 X105.360 Y106.422 E4.14036
G1 X104.770 Y107.079 E4.15512
G1 X104.844 Y107.619 F7800.000
G1 E2.15512 F2400.00000
G92 E0
G1 X111.951 Y102.082 F7800.000
G1 E2.00000 F2400.00000
G1 X111.647 Y103.533 E2.02475 F1200.000
G1 X111.333 Y104.614 E2.04356
G1 X110.935 Y105.668 E2.06237
G1 X110.456 Y106.691 E2.08124
G1 X110.190 Y107.183 E2.09058
G1 X109.905 Y107.664 E2.09992
G1 X109.283 Y108.590 E2.11856
G1 X108.575 Y109.485 E2.13761
G1 X107.810 Y110.312 E2.15641
G1 X106.992 Y111.070 E2.17505
G1 X106.552 Y111.432 E2.18456
G1 X105.640 Y112.099 E2.20344
G1 X104.690 Y112.686 E2.22207
G1 X104.186 Y112.959 E2.23165
G1 X103.685 Y113.206 E2.24099
G1 X102.643 Y113.645 E2.25987
G1 X101.575 Y114.001 E2.27867
G1 X100.482 Y114.274 E2.29748
G1 X99.368 Y114.462 E2.31636
G1 X98.816 Y114.523 E2.32563
G1 X97.687 Y114.581 E2.34451
G1 X96.561 Y114.552 E2.36332
G1 X95.441 Y114.436 E2.38213
G1 X94.343 Y114.236 E2.40076
G1 X93.786 Y114.101 E2.41034
G1 X93.248 Y113.948 E2.41968
G1 X92.181 Y113.577 E2.43855
G1 X91.149 Y113.126 E2.45736
G1 X90.151 Y112.595 E2.47624
G1 X89.677 Y112.306 E2.48551
G1 X88.744 Y111.661 E2.50445
G1 X88.307 Y111.319 E2.51373
G1 X87.468 Y110.582 E2.53236
G1 X86.669 Y109.763 E2.55148
G1 X86.305 Y109.344 E2.56075
G1 X85.624 Y108.460 E2.57939
G1 X84.996 Y107.503 E2.59850
G1 X84.720 Y107.022 E2.60777
G1 X84.221 Y106.024 E2.62641
G1 X83.790 Y104.967 E2.64546
G1 X83.448 Y103.895 E2.66427
G1 X83.191 Y102.809 E2.68290
G1 X83.092 Y102.244 E2.69248
G1 X83.016 Y101.690 E2.70182
G1 X82.929 Y100.563 E2.72070
G1 X82.929 Y99.433 E2.73957
G1 X82.961 Y98.879 E2.74884
G1 X83.090 Y97.770 E2.76748
G1 X83.308 Y96.651 E2.78653
G1 X83.609 Y95.565 E2.80534
G1 X83.989 Y94.516 E2.82397
G1 X84.213 Y93.993 E2.83349
G1 X84.720 Y92.978 E2.85243
G1 X84.996 Y92.497 E2.86170
G1 X85.617 Y91.548 E2.88064
G1 X85.948 Y91.102 E2.88991
G1 X86.672 Y90.234 E2.90879
G1 X87.461 Y89.424 E2.92767
G1 X87.870 Y89.050 E2.93694
G1 X88.747 Y88.337 E2.95581
G1 X89.677 Y87.694 E2.97469
G1 X90.151 Y87.405 E2.98396
G1 X91.136 Y86.880 E3.00260
G1 X92.181 Y86.423 E3.02165
G1 X93.244 Y86.053 E3.04045
G1 X94.337 Y85.765 E3.05933
G1 X94.881 Y85.655 E3.06860
G1 X96.004 Y85.495 E3.08755
G1 X97.120 Y85.423 E3.10622
G1 X98.236 Y85.437 E3.12486
G1 X99.372 Y85.539 E3.14391
G1 X100.482 Y85.726 E3.16271
G1 X101.575 Y85.999 E3.18152
G1 X102.643 Y86.355 E3.20033
G1 X103.672 Y86.789 E3.21897
G1 X104.183 Y87.040 E3.22848
G1 X105.166 Y87.596 E3.24735
G1 X106.101 Y88.225 E3.26616
G1 X106.984 Y88.924 E3.28497
G1 X107.810 Y89.688 E3.30378
G1 X108.575 Y90.515 E3.32259
G1 X109.274 Y91.398 E3.34140
G1 X109.898 Y92.324 E3.36004
G1 X110.188 Y92.814 E3.36955
G1 X110.706 Y93.818 E3.38842
G1 X111.146 Y94.859 E3.40730
G1 X111.332 Y95.382 E3.41657
G1 X111.647 Y96.467 E3.43544
G1 X111.951 Y97.918 E3.46019
G1 X117.082 Y97.918 E3.54590
G1 X117.082 Y102.082 E3.61545
G1 X112.026 Y102.082 E3.69990
G1 X112.168 Y102.350 F7800.000
G1 X111.908 Y103.598 E3.72118 F1200.000
G1 X111.587 Y104.699 E3.74034
G1 X111.182 Y105.772 E3.75949
G1 X110.695 Y106.812 E3.77867
G1 X110.423 Y107.315 E3.78823
G1 X110.132 Y107.807 E3.79778
G1 X109.499 Y108.748 E3.81672
G1 X108.779 Y109.659 E3.83611
G1 X108.000 Y110.501 E3.85527
G1 X107.168 Y111.271 E3.87421
G1 X106.716 Y111.644 E3.88398
G1 X105.789 Y112.321 E3.90316
G1 X104.825 Y112.917 E3.92209
G1 X104.309 Y113.197 E3.93189
G1 X103.796 Y113.449 E3.94144
G1 X102.738 Y113.896 E3.96062
G1 X101.650 Y114.258 E3.97978
G1 X100.537 Y114.536 E3.99893
G1 X99.405 Y114.727 E4.01811
G1 X98.837 Y114.790 E4.02764
G1 X97.691 Y114.849 E4.04682
G1 X96.544 Y114.819 E4.06597
G1 X95.403 Y114.701 E4.08513
G1 X94.288 Y114.498 E4.10407
G1 X93.718 Y114.360 E4.11386
G1 X93.167 Y114.204 E4.12342
G1 X92.083 Y113.827 E4.14259
G1 X91.032 Y113.367 E4.16175
G1 X90.018 Y112.828 E4.18093
G1 X89.531 Y112.531 E4.19046
G1 X88.585 Y111.877 E4.20966
G1 X88.136 Y111.525 E4.21919
G1 X87.284 Y110.777 E4.23813
G1 X86.472 Y109.945 E4.25755
G1 X86.098 Y109.514 E4.26708
G1 X85.405 Y108.616 E4.28602
G1 X84.768 Y107.643 E4.30544
G1 X84.484 Y107.148 E4.31497
G1 X83.977 Y106.134 E4.33390
G1 X83.538 Y105.059 E4.35330
G1 X83.190 Y103.966 E4.37245
G1 X82.929 Y102.863 E4.39139
G1 X82.827 Y102.285 E4.40119
G1 X82.750 Y101.718 E4.41074
G1 X82.661 Y100.573 E4.42992
G1 X82.661 Y99.425 E4.44910
G1 X82.694 Y98.855 E4.45863
G1 X82.825 Y97.729 E4.47757
G1 X83.047 Y96.589 E4.49696
G1 X83.353 Y95.484 E4.51612
G1 X83.739 Y94.418 E4.53505
G1 X83.970 Y93.880 E4.54483
G1 X84.484 Y92.852 E4.56403
G1 X84.768 Y92.357 E4.57356
G1 X85.398 Y91.395 E4.59276
G1 X85.737 Y90.936 E4.60229
G1 X86.473 Y90.054 E4.62147
G1 X87.274 Y89.232 E4.64065
G1 X87.695 Y88.847 E4.65018
G1 X88.587 Y88.123 E4.66936
G1 X89.531 Y87.469 E4.68854
G1 X90.018 Y87.172 E4.69807
